packages/astro-components-stencil/src/icons/arrow-downward.svg

<svg width="24" height="24" viewBox="0 0 24 24" fill="none" xmlns="http://www.w3.org/2000/svg">
<path d="M11 5V16.17L6.11997 11.29C5.72997 10.9 5.08997 10.9 4.69997 11.29C4.30997 11.68 4.30997 12.31 4.69997 12.7L11.29 19.29C11.68 19.68 12.31 19.68 12.7 19.29L19.29 12.7C19.68 12.31 19.68 11.68 19.29 11.29C18.9 10.9 18.27 10.9 17.88 11.29L13 16.17V5C13 4.45 12.55 4 12 4C11.45 4 11 4.45 11 5Z" fill="black"/>
</svg>

<svg xmlns="http://www.w3.org/2000/svg" viewBox="0 0 24 24"><g xmlns="http://www.w3.org/2000/svg" id="arrow-downward" fill-rule="nonzero">
            <path d="M11 5v11.17l-4.88-4.88c-.39-.39-1.03-.39-1.42 0a.996.996 0 000 1.41l6.59 6.59c.39.39 1.02.39 1.41 0l6.59-6.59a.996.996 0 10-1.41-1.41L13 16.17V5c0-.55-.45-1-1-1s-1 .45-1 1z"/>
        </g></svg>
